!!!OTL: 1523. Ruhmlied auf Sachsens Bergbau.
!!!ARE: Europa, Mitteleuropa, Deutschland
!!!SCT: E1523
!!!TXL: @@DE
!!!YEM: Copyright 1995, estate of Helmut Schaffrath.
**kern	**text
*ICvox	*
!! Mixed meters:  4/4; 3/4
*M4/4	*
*met(c)	*
*k[]	*
*C:	*
!LO:TX:a:t=Rhaw, Bicinia II. 1545, Nr. 79.	!
{4c	Jch
4g	hab
4a	durch
=1	=1
4b	wan-
4g	-dert
4a	Städt'
4b	und
=2	=2
2cc	Land,
4r}	.
{4cc	viel
=3	=3
4ee	A-
4ff	-ben-
4gg	-teur
4dd	ʒu
=4	=4
(4.ff	ſchau-
8ee)	.
2dd	-en
=5	=5
*M3/4	*
*met(3)	*
4r	.
4r}	.
{4dd	und
=6	=6
2dd	mich
4dd	an
=7	=7
2cc	man-
4b	-chen
=8	=8
(4.cc	Ort
8b)	.
4a	ge-
=9	=9
2g}	-wandt,
{4g	da
=10	=10
2cc	viel
4cc	Leut
=11	=11
2g	Berg-
4g	-werk
=12	=12
(2e	bau-
4d)	.
=13	=13
2c;}	-en,
{4c	bis
=14	=14
2g	ich
4g	er-
=15	=15
2a	-ſach
4b	ein
=16	=16
2cc	ſchön
4cc	Land-
=17	=17
2cc}	-art,
{4cc	erʒ-
=18	=18
2dd	-reich
4cc	auf
=19	=19
2b	al-
4a	-len
=20	=20
(2g	Sei-
4a)	.
=21	=21
2e;}	-ten,
{4e	da
=22	=22
2g	et-
4g	-wan
=23	=23
2a	gar
4a	viel
=24	=24
2f	Sil-
4f	-bers
=25	=25
2d}	ward
{4d	er-
=26	=26
2g	-baut
4a	vor
=27	=27
2g	lan-
4f	-gen
=28	=28
(2e	Ʒei-
4d)	.
=29	=29
2.c;}	-ten.
==	==
!!!AGN: Staende -, Bergmanns - Lied
!!!ONB: ESAC (Essen Associative Code) Database: ERK3
!!!AMT: irregular
!!!AIN: vox
!!!EED: Helmut Schaffrath
!!!EEV: 1.0
!!!GTL: Staendelieder (Berufslieder). 5. Bergmannslieder.
!!!URL-scan: https://rosdok.uni-rostock.de/mcrviewer/recordIdentifier/rosdok_ppn745177999/iview2/phys_0369.iview2?x=-128.77276441889285&y=-226.1894796071574&scale=0.5870222003877487&rotation=0&layout=singlePageLayout
!!!ENC: Anna Maria Matuszewska
!!!EEV: 2025/03/01
*-	*-
